;FLAVOR:Marlin
;TIME:18907
;Filament used: 13.2595m
;Layer height: 0.2
;MINX:67.72
;MINY:77.72
;MINZ:0.2
;MAXX:152.28
;MAXY:142.28
;MAXZ:23.2
;Generated with Cura_SteamEngine 4.2.1
M140 S60
M105
M190 S60
M104 S200
M105
M109 S200
M82 ;absolute extrusion mode
M201 X500.00 Y500.00 Z100.00 E5000.00 ;Setup machine max acceleration
M203 X500.00 Y500.00 Z10.00 E50.00 ;Setup machine max feedrate
M204 P500.00 R1000.00 T500.00 ;Setup Print/Retract/Travel acceleration
M205 X8.00 Y8.00 Z0.40 E5.00 ;Setup Jerk
M220 S100 ;Reset Feedrate
M221 S100 ;Reset Flowrate

G28 ;Home

G92 E0 ;Reset Extruder
G1 Z2.0 F3000 ;Move Z Axis up
G1 X10.1 Y20 Z0.28 F5000.0 ;Move to start position
G1 X10.1 Y200.0 Z0.28 F1500.0 E15 ;Draw the first line
G1 X10.4 Y200.0 Z0.28 F5000.0 ;Move to side a little
G1 X10.4 Y20 Z0.28 F1500.0 E30 ;Draw the second line
G92 E0 ;Reset Extruder
G1 Z2.0 F3000 ;Move Z Axis up

M141 S28
G92 E0
G92 E0
G1 F2700 E-5
;LAYER_COUNT:115
;LAYER:0
M107
;MESH:1cb97db4-a4e6-4eb1-82d2-a38e957bb238.stl
G0 F6000 X75.001 Y141.4 Z0.2
;TYPE:WALL-INNER
G1 F2700 E0
G1 F1200 X72.547 Y141.4 E0.08978
G1 X71.903 Y141.349 E0.11342
G1 X71.319 Y141.213 E0.13536
G1 X70.758 Y140.984 E0.15752
G1 X70.199 Y140.643 E0.18148
G1 X69.738 Y140.25 E0.20364
G1 X69.35 Y139.794 E0.22555
G1 X69.04 Y139.285 E0.24735
G1 X68.804 Y138.726 E0.26955
G1 X68.656 Y138.124 E0.29223
G1 X68.603 Y137.494 E0.31536
G1 X68.6 Y82.539 E2.32596
G1 X68.651 Y81.903 E2.3493
G1 X68.787 Y81.319 E2.37124
G1 X69.016 Y80.758 E2.39341
G1 X69.355 Y80.201 E2.41726
G1 X69.747 Y79.741 E2.43937
G1 X70.206 Y79.35 E2.46143
G1 X70.715 Y79.04 E2.48324
G1 X71.274 Y78.804 E2.50544
G1 X71.874 Y78.656 E2.52805
G1 X72.506 Y78.603 E2.55125
G1 X144.999 Y78.6 E5.20349
G1 X147.453 Y78.6 E5.29327
G1 X148.097 Y78.651 E5.31691
G1 X148.681 Y78.787 E5.33885
G1 X149.242 Y79.016 E5.36102
G1 X149.799 Y79.355 E5.38487
G1 X150.259 Y79.747 E5.40698
G1 X150.65 Y80.206 E5.42904
G1 X150.96 Y80.715 E5.45085
G1 X151.196 Y81.274 E5.47305
G1 X151.344 Y81.874 E5.49566
G1 X151.397 Y82.506 E5.51886
G1 X151.4 Y137.456 E7.52927
G1 X151.349 Y138.097 E7.5528
G1 X151.213 Y138.681 E7.57473
G1 X150.984 Y139.242 E7.5969
G1 X150.645 Y139.799 E7.62076
G1 X150.253 Y140.259 E7.64287
G1 X149.794 Y140.65 E7.66493
G1 X149.285 Y140.96 E7.68673
G1 X148.726 Y141.196 E7.70893
G1 X148.126 Y141.344 E7.73154
G1 X147.494 Y141.397 E7.75475
G1 X75.001 Y141.4 E10.40699
G1 F2700 E5.40699
G1 F600 Z0.4
G0 F6000 X111.208 Y102.11 Z0.4
G1 F600 Z0.2
G1 F2700 E10.40699
G1 F1200 X112.013 Y102.004 E10.43669
G1 X112.763 Y101.692 E10.46641
G1 X113.408 Y101.199 E10.49611
G1 X113.772 Y100.722 E10.51807
G1 X113.9 Y100.555 E10.52576
G1 X113.917 Y100.515 E10.52736
G1 X113.958 Y100.416 E10.53128
G1 X113.998 Y100.514 E10.53185
G1 X114.016 Y100.555
G1 X114.144 Y100.722 E10.53955
G1 X114.509 Y101.199 E10.56152
G1 X115.153 Y101.692 E10.5912
G1 X115.904 Y102.004 E10.62095
G1 X116.708 Y102.11 E10.65062
G1 X117.513 Y102.004 E10.68032
G1 X118.263 Y101.692 E10.71004
G1 X118.908 Y101.199 E10.73975
G1 X119.272 Y100.722 E10.7617
G1 X119.4 Y100.555 E10.7694
G1 X119.417 Y100.515 E10.77099
G1 X119.458 Y100.416 E10.77491
G1 X119.498 Y100.514 E10.77548
G1 X119.516 Y100.555
G1 X119.644 Y100.722 E10.78318
G1 X120.009 Y101.199 E10.80515
G1 X120.653 Y101.692 E10.83483
G1 X121.404 Y102.004 E10.86458
G1 X122.208 Y102.11 E10.89425
G1 X123.013 Y102.004 E10.92396
G1 X123.763 Y101.692 E10.95367
G1 X124.408 Y101.199 E10.98338
G1 X124.9 Y100.555 E11.01303
G1 X125.212 Y99.805 E11.04275
G1 X125.318 Y99 E11.07245
G1 X125.212 Y98.195 E11.10216
G1 X124.9 Y97.445 E11.13188
G1 X124.408 Y96.801 E11.16153
G1 X123.763 Y96.308 E11.19123
G1 X123.013 Y95.996 E11.22095
G1 X122.208 Y95.89 E11.25066
G1 X121.404 Y95.996 E11.28032
G1 X120.653 Y96.308 E11.31008
G1 X120.009 Y96.801 E11.33975
G1 X119.644 Y97.278 E11.36173
G1 X119.516 Y97.445 E11.36942
G1 X119.499 Y97.485 E11.37101
G1 X119.458 Y97.584 E11.37493
G1 X119.418 Y97.486 E11.37551
G1 X119.4 Y97.445
G1 X119.272 Y97.278 E11.38321
G1 X118.908 Y96.801 E11.40516
G1 X118.263 Y96.308 E11.43486
G1 X117.513 Y95.996 E11.46458
G1 X116.708 Y95.89 E11.49429
G1 X115.904 Y95.996 E11.52396
G1 X115.153 Y96.308 E11.55371
G1 X114.509 Y96.801 E11.58338
G1 X114.144 Y97.278 E11.60536
G1 X114.016 Y97.445 E11.61305
G1 X113.999 Y97.485 E11.61464
G1 X113.958 Y97.584 E11.61856
G1 X113.918 Y97.486 E11.61914
G1 X113.9 Y97.445
G1 X113.772 Y97.278 E11.62684
G1 X113.408 Y96.801 E11.64879
G1 X112.763 Y96.308 E11.67849
G1 X112.013 Y95.996 E11.70821
G1 X111.208 Y95.89 E11.73792
G1 X110.404 Y95.996 E11.76759
G1 X109.653 Y96.308 E11.79734
G1 X109.009 Y96.801 E11.82701
G1 X108.644 Y97.278 E11.84899
G1 X108.516 Y97.445 E11.85669
G1 X108.499 Y97.485 E11.85828
G1 X108.458 Y97.584 E11.8622
G1 X108.418 Y97.486 E11.86277
G1 X108.4 Y97.445
G1 X108.272 Y97.278 E11.87047
G1 X107.908 Y96.801 E11.89242
G1 X107.263 Y96.308 E11.92212
G1 X106.513 Y95.996 E11.95184
G1 X105.708 Y95.89 E11.98155
G1 X104.904 Y95.996 E12.01122
G1 X104.153 Y96.308 E12.04097
G1 X103.509 Y96.801 E12.07064
G1 X103.016 Y97.445 E12.10032
G1 X102.704 Y98.195 E12.13004
G1 X102.598 Y99 E12.15974
G1 X102.704 Y99.805 E12.18945
G1 X103.016 Y100.555 E12.21917
G1 X103.509 Y101.199 E12.24884
G1 X104.153 Y101.692 E12.27851
G1 X104.904 Y102.004 E12.30827
G1 X105.708 Y102.11 E12.33794
G1 X106.513 Y102.004 E12.36764
G1 X107.263 Y101.692 E12.39736
G1 X107.908 Y101.199 E12.42706
G1 X108.272 Y100.722 E12.44901
G1 X108.4 Y100.555 E12.45671
G1 X108.417 Y100.515 E12.4583
G1 X108.458 Y100.416 E12.46222
G1 X108.498 Y100.514 E12.4628
G1 X108.516 Y100.555
G1 X108.644 Y100.722 E12.4705
G1 X109.009 Y101.199 E12.49247
G1 X109.653 Y101.692 E12.52214
G1 X110.404 Y102.004 E12.5519
G1 X111.208 Y102.11 E12.58157
G1 F2700 E7.58157
G1 F600 Z0.4
G0 F6000 X75.001 Y141.84 Z0.4
G1 F600 Z0.2
G1 F2700 E12.58157
G1 F1200 X72.525 Y141.84 E12.67215
G1 X71.841 Y141.786 E12.69726
G1 X71.185 Y141.633 E12.7219
G1 X70.555 Y141.376 E12.74679
G1 X69.939 Y141 E12.7732
G1 X69.429 Y140.565 E12.79772
G1 X68.991 Y140.051 E12.82243
G1 X68.649 Y139.49 E12.84647
G1 X68.385 Y138.864 E12.87132
G1 X68.221 Y138.198 E12.89642
G1 X68.163 Y137.507 E12.92179
G1 X68.16 Y82.517 E14.93366
G1 X68.214 Y81.841 E14.95847
G1 X68.367 Y81.185 E14.98312
G1 X68.624 Y80.555 E15.00801
G1 X68.996 Y79.944 E15.03418
G1 X69.435 Y79.429 E15.05894
G1 X69.949 Y78.991 E15.08365
G1 X70.51 Y78.649 E15.10768
G1 X71.136 Y78.385 E15.13254
G1 X71.802 Y78.221 E15.15763
G1 X72.493 Y78.163 E15.183
G1 X144.999 Y78.16 E17.83572
G1 X147.475 Y78.16 E17.92631
G1 X148.159 Y78.214 E17.95141
G1 X148.815 Y78.367 E17.97605
G1 X149.445 Y78.624 E18.00095
G1 X150.056 Y78.996 E18.02712
G1 X150.571 Y79.435 E18.05188
G1 X151.009 Y79.949 E18.07658
G1 X151.351 Y80.51 E18.10062
G1 X151.615 Y81.136 E18.12548
G1 X151.779 Y81.802 E18.15057
G1 X151.837 Y82.493 E18.17594
G1 X151.84 Y137.478 E20.18763
G1 X151.786 Y138.159 E20.21263
G1 X151.633 Y138.815 E20.23727
G1 X151.376 Y139.445 E20.26216
G1 X151.004 Y140.056 E20.28834
G1 X150.565 Y140.571 E20.31309
G1 X150.051 Y141.009 E20.3378
G1 X149.49 Y141.351 E20.36184
G1 X148.864 Y141.615 E20.38669
G1 X148.198 Y141.779 E20.41179
G1 X147.507 Y141.837 E20.43716
G1 X75.001 Y141.84 E23.08987
G1 F2700 E18.08987
G1 F600 Z0.4
G0 F6000 X105.708 Y101.666 Z0.4
G1 F600 Z0.2
G1 F2700 E23.08987
G1 F1200 X106.398 Y101.575 E23.11534
G1 X107.041 Y101.308 E23.14081
G1 X107.594 Y100.885 E23.16628
G1 X108.016 Y100.333 E23.1917
G1 X108.242 Y99.789 E23.21326
G1 X108.283 Y99.69 E23.21718
G1 X108.288 Y99.646 E23.2188
G1 X108.374 Y99 E23.24264
G1 X108.289 Y98.354 E23.26648
G1 X108.283 Y98.31 E23.2681
G1 X108.242 Y98.211 E23.27202
G1 X108.016 Y97.667 E23.29357
G1 X107.594 Y97.115 E23.319
G1 X107.041 Y96.692 E23.34447
G1 X106.398 Y96.425 E23.36994
G1 X105.708 Y96.334 E23.3954
G1 X105.019 Y96.425 E23.42083
G1 X104.375 Y96.692 E23.44634
G1 X103.823 Y97.115 E23.47178
G1 X103.4 Y97.667 E23.49722
G1 X103.133 Y98.31 E23.5227
G1 X103.042 Y99 E23.54816
G1 X103.133 Y99.69 E23.57362
G1 X103.4 Y100.333 E23.59909
G1 X103.823 Y100.885 E23.62454
G1 X104.375 Y101.308 E23.64998
G1 X105.019 Y101.575 E23.67549
G1 X105.708 Y101.666 E23.70091
G1 F2700 E18.70091
G1 F600 Z0.4
G0 F6000 X111.208 Y101.666 Z0.4
G1 F600 Z0.2
G1 F2700 E23.70091
G1 F1200 X111.898 Y101.575 E23.72638
G1 X112.541 Y101.308 E23.75185
G1 X113.094 Y100.885 E23.77732
G1 X113.516 Y100.333 E23.80274
G1 X113.742 Y99.789 E23.8243
G1 X113.783 Y99.69 E23.82822
G1 X113.788 Y99.646 E23.82984
G1 X113.874 Y99 E23.85368
G1 X113.789 Y98.354 E23.87752
G1 X113.783 Y98.31 E23.87914
G1 X113.742 Y98.211 E23.88306
G1 X113.516 Y97.667 E23.90461
G1 X113.094 Y97.115 E23.93004
G1 X112.541 Y96.692 E23.95551
G1 X111.898 Y96.425 E23.98098
G1 X111.208 Y96.334 E24.00644
G1 X110.519 Y96.425 E24.03187
G1 X109.875 Y96.692 E24.05738
G1 X109.323 Y97.115 E24.08282
G1 X108.9 Y97.667 E24.10826
G1 X108.674 Y98.211 E24.12981
G1 X108.633 Y98.31 E24.13374
G1 X108.628 Y98.354 E24.135
G1 X108.542 Y99 E24.14882
G1 X108.627 Y99.646 E24.16263
G1 X108.633 Y99.69 E24.1639
G1 X108.674 Y99.789 E24.16782
G1 X108.9 Y100.333 E24.18937
G1 X109.323 Y100.885 E24.21482
G1 X109.875 Y101.308 E24.24026
G1 X110.519 Y101.575 E24.26577
G1 X111.208 Y101.666 E24.29119
G1 F2700 E19.29119
G1 F600 Z0.4
G0 F6000 X116.708 Y101.666 Z0.4
G1 F600 Z0.2
G1 F2700 E24.29119
G1 F1200 X117.398 Y101.575 E24.31666
G1 X118.041 Y101.308 E24.34213
G1 X118.594 Y100.885 E24.3676
G1 X119.016 Y100.333 E24.39302
G1 X119.242 Y99.789 E24.41458
G1 X119.283 Y99.69 E24.4185
G1 X119.288 Y99.646 E24.42012
G1 X119.374 Y99 E24.44396
G1 X119.289 Y98.354 E24.4678
G1 X119.283 Y98.31 E24.46942
G1 X119.242 Y98.211 E24.47334
G1 X119.016 Y97.667 E24.49489
G1 X118.594 Y97.115 E24.52032
G1 X118.041 Y96.692 E24.54579
G1 X117.398 Y96.425 E24.57126
G1 X116.708 Y96.334 E24.59672
G1 X116.019 Y96.425 E24.62215
G1 X115.375 Y96.692 E24.64766
G1 X114.823 Y97.115 E24.6731
G1 X114.4 Y97.667 E24.69854
G1 X114.174 Y98.211 E24.7201
G1 X114.133 Y98.31 E24.72402
G1 X114.128 Y98.354 E24.72528
G1 X114.042 Y99 E24.7391
G1 X114.127 Y99.646 E24.75291
G1 X114.133 Y99.69 E24.75418
G1 X114.174 Y99.789 E24.7581
G1 X114.4 Y100.333 E24.77966
G1 X114.823 Y100.885 E24.8051
G1 X115.375 Y101.308 E24.83054
G1 X116.019 Y101.575 E24.85605
G1 X116.708 Y101.666 E24.88147
G1 F2700 E19.88147
G1 F600 Z0.4
G0 F6000 X122.208 Y101.666 Z0.4
G1 F600 Z0.2
G1 F2700 E24.88147
G1 F1200 X122.898 Y101.575 E24.90694
G1 X123.541 Y101.308 E24.93241
G1 X124.094 Y100.885 E24.95788
G1 X124.516 Y100.333 E24.9833
G1 X124.783 Y99.69 E25.00878
G1 X124.874 Y99 E25.03424
G1 X124.783 Y98.31 E25.0597
G1 X124.516 Y97.667 E25.08517
G1 X124.094 Y97.115 E25.1106
G1 X123.541 Y96.692 E25.13607
G1 X122.898 Y96.425 E25.16154
G1 X122.208 Y96.334 E25.187
G1 X121.519 Y96.425 E25.21243
G1 X120.875 Y96.692 E25.23794
G1 X120.323 Y97.115 E25.26338
G1 X119.9 Y97.667 E25.28882
G1 X119.674 Y98.211 E25.31038
G1 X119.633 Y98.31 E25.3143
G1 X119.628 Y98.354 E25.31556
G1 X119.542 Y99 E25.32938
G1 X119.627 Y99.646 E25.34319
G1 X119.633 Y99.69 E25.34446
G1 X119.674 Y99.789 E25.34838
G1 X119.9 Y100.333 E25.36994
G1 X120.323 Y100.885 E25.39538
G1 X120.875 Y101.308 E25.42082
G1 X121.519 Y101.575 E25.44633
G1 X122.208 Y101.666 E25.47175
G1 F2700 E20.47175
G1 F600 Z0.4
G0 F6000 X75.001 Y142.28 Z0.4
;TYPE:WALL-OUTER
G1 F600 Z0.2
G1 F2700 E25.47175
G1 F1200 X72.504 Y142.28 E25.56311
G1 X71.779 Y142.223 E25.58972
G1 X71.051 Y142.053 E25.61707
G1 X70.352 Y141.768 E25.64469
G1 X69.679 Y141.357 E25.67354
G1 X69.12 Y140.88 E25.70042
G1 X68.636 Y140.312 E25.72772
G1 X68.256 Y139.69 E25.75439
G1 X67.966 Y139.002 E25.78171
G1 X67.786 Y138.27 E25.80929
G1 X67.723 Y137.52 E25.83682
G1 X67.72 Y82.5 E27.84979
G1 X67.777 Y81.779 E27.87625
G1 X67.947 Y81.051 E27.90361
G1 X68.232 Y80.352 E27.93122
G1 X68.639 Y79.684 E27.95984
G1 X69.12 Y79.12 E27.98696
G1 X69.688 Y78.636 E28.01426
G1 X70.31 Y78.256 E28.04093
G1 X70.998 Y77.966 E28.06825
G1 X71.73 Y77.786 E28.09583
G1 X72.48 Y77.723 E28.12336
G1 X144.999 Y77.72 E30.77655
G1 X147.496 Y77.72 E30.86791
G1 X148.221 Y77.777 E30.89452
G1 X148.949 Y77.947 E30.92187
G1 X149.648 Y78.232 E30.94948
G1 X150.316 Y78.639 E30.9781
G1 X150.88 Y79.12 E31.00522
G1 X151.364 Y79.688 E31.03252
G1 X151.744 Y80.31 E31.05919
G1 X152.034 Y80.998 E31.08651
G1 X152.214 Y81.73 E31.11409
G1 X152.277 Y82.48 E31.14162
G1 X152.28 Y137.5 E33.15459
G1 X152.223 Y138.221 E33.18105
G1 X152.053 Y138.949 E33.20841
G1 X151.768 Y139.648 E33.23602
G1 X151.361 Y140.316 E33.26464
G1 X150.88 Y140.88 E33.29176
G1 X150.312 Y141.364 E33.31906
G1 X149.69 Y141.744 E33.34573
G1 X149.002 Y142.034 E33.37305
G1 X148.27 Y142.214 E33.40063
G1 X147.52 Y142.277 E33.42816
G1 X75.001 Y142.28 E36.08135
G1 F2700 E31.08135
G1 F600 Z0.4
G0 F6000 X105.708 Y101.222 Z0.4
G1 F600 Z0.2
G1 F2700 E36.08135
G1 F1200 X106.283 Y101.146 E36.10257
G1 X106.819 Y100.924 E36.1238
G1 X107.28 Y100.571 E36.14504
G1 X107.632 Y100.111 E36.16623
G1 X107.854 Y99.575 E36.18746
G1 X107.93 Y99 E36.20868
G1 X107.854 Y98.425 E36.2299
G1 X107.632 Y97.889 E36.25112
G1 X107.28 Y97.429 E36.27232
G1 X106.819 Y97.076 E36.29356
G1 X106.283 Y96.854 E36.31478
G1 X105.708 Y96.778 E36.336
G1 X105.134 Y96.854 E36.35719
G1 X104.597 Y97.076 E36.37845
G1 X104.137 Y97.429 E36.39966
G1 X103.784 Y97.889 E36.42088
G1 X103.562 Y98.425 E36.4421
G1 X103.486 Y99 E36.46332
G1 X103.562 Y99.575 E36.48454
G1 X103.784 Y100.111 E36.50577
G1 X104.137 Y100.571 E36.52698
G1 X104.597 Y100.924 E36.54819
G1 X105.134 Y101.146 E36.56945
G1 X105.708 Y101.222 E36.59064
G1 F2700 E31.59064
G1 F600 Z0.4
G0 F6000 X111.208 Y101.222 Z0.4
G1 F600 Z0.2
G1 F2700 E36.59064
G1 F1200 X111.783 Y101.146 E36.61186
G1 X112.319 Y100.924 E36.63308
G1 X112.78 Y100.571 E36.65433
G1 X113.132 Y100.111 E36.67552
G1 X113.354 Y99.575 E36.69674
G1 X113.43 Y99 E36.71796
G1 X113.354 Y98.425 E36.73918
G1 X113.132 Y97.889 E36.76041
G1 X112.78 Y97.429 E36.7816
G1 X112.319 Y97.076 E36.80284
G1 X111.783 Y96.854 E36.82407
G1 X111.208 Y96.778 E36.84529
G1 X110.634 Y96.854 E36.86647
G1 X110.097 Y97.076 E36.88773
G1 X109.637 Y97.429 E36.90895
G1 X109.284 Y97.889 E36.93016
G1 X109.062 Y98.425 E36.95139
G1 X108.986 Y99 E36.97261
G1 X109.062 Y99.575 E36.99383
G1 X109.284 Y100.111 E37.01505
G1 X109.637 Y100.571 E37.03627
G1 X110.097 Y100.924 E37.05748
G1 X110.634 Y101.146 E37.07874
G1 X111.208 Y101.222 E37.09992
G1 F2700 E32.09992
G1 F600 Z0.4
G0 F6000 X116.708 Y101.222 Z0.4
G1 F600 Z0.2
G1 F2700 E37.09992
G1 F1200 X117.283 Y101.146 E37.12114
G1 X117.819 Y100.924 E37.14237
G1 X118.28 Y100.571 E37.16361
G1 X118.632 Y100.111 E37.1848
G1 X118.854 Y99.575 E37.20603
G1 X118.93 Y99 E37.22725
G1 X118.854 Y98.425 E37.24847
G1 X118.632 Y97.889 E37.26969
G1 X118.28 Y97.429 E37.29089
G1 X117.819 Y97.076 E37.31213
G1 X117.283 Y96.854 E37.33336
G1 X116.708 Y96.778 E37.35458
G1 X116.134 Y96.854 E37.37576
G1 X115.597 Y97.076 E37.39702
G1 X115.137 Y97.429 E37.41823
G1 X114.784 Y97.889 E37.43945
G1 X114.562 Y98.425 E37.46067
G1 X114.486 Y99 E37.48189
G1 X114.562 Y99.575 E37.50311
G1 X114.784 Y100.111 E37.52434
G1 X115.137 Y100.571 E37.54555
G1 X115.597 Y100.924 E37.56677
G1 X116.134 Y101.146 E37.58802
G1 X116.708 Y101.222 E37.60921
G1 F2700 E32.60921
G1 F600 Z0.4
G0 F6000 X122.208 Y101.222 Z0.4
G1 F600 Z0.2
G1 F2700 E37.60921
G1 F1200 X122.783 Y101.146 E37.63043
G1 X123.319 Y100.924 E37.65165
G1 X123.78 Y100.571 E37.6729
G1 X124.132 Y100.111 E37.69409
G1 X124.354 Y99.575 E37.71531
G1 X124.43 Y99 E37.73653
G1 X124.354 Y98.425 E37.75775
G1 X124.132 Y97.889 E37.77898
G1 X123.78 Y97.429 E37.80017
G1 X123.319 Y97.076 E37.82141
G1 X122.783 Y96.854 E37.84264
