;FLAVOR:Marlin
;TIME:11144
;Filament used: 9.55581m
;Layer height: 0.2
;Generated with Cura_SteamEngine 3.6.0
M140 S60
M105
M190 S60
M104 S200
M105
M109 S200
M82 ;absolute extrusion mode
; Ender 3 Custom Start G-code
G28 ; Home all axes
G92 E0 ; Reset Extruder
G1 Z2.0 F3000 ; Move Z Axis up little to prevent scratching of Heat Bed
G1 X0.1 Y20 Z0.3 F5000.0 ; Move to start position
G1 X0.1 Y200.0 Z0.3 F1500.0 E15 ; Draw the first line
G1 X0.4 Y200.0 Z0.3 F5000.0 ; Move to side a little
G1 X0.4 Y20 Z0.3 F1500.0 E30 ; Draw the second line
G92 E0 ; Reset Extruder
G1 Z2.0 F3000 ; Move Z Axis up little to prevent scratching of Heat Bed
; End of custom start GCode
G92 E0
G1 F2400 E-5
;LAYER_COUNT:186
;LAYER:0
M107
M204 S5000
M205 X30 Y30
G0 F3600 X74.898 Y84.676 Z0.2
M204 S500
M205 X20 Y20
;TYPE:SKIRT
G1 F2400 E0
G1 F1500 X75.439 Y84.209 E0.02377
G1 X76.029 Y83.805 E0.04755
G1 X76.661 Y83.469 E0.07136
G1 X77.326 Y83.206 E0.09514
G1 X77.669 Y83.103 E0.10706
G1 X78.47 Y82.886 E0.13466
G1 X79.17 Y82.738 E0.15845
G1 X80.145 Y82.663 E0.19098
G1 X155.018 Y82.674 E2.68127
G1 X155.732 Y82.714 E2.70505
G1 X156.437 Y82.834 E2.72884
G1 X156.957 Y82.975 E2.74676
G1 X157.592 Y83.177 E2.76892
G1 X158.261 Y83.432 E2.79273
G1 X158.896 Y83.759 E2.81649
G1 X159.492 Y84.156 E2.84031
G1 X160.039 Y84.616 E2.86408
G1 X160.532 Y85.135 E2.88789
G1 X160.963 Y85.705 E2.91165
G1 X161.354 Y86.37 E2.93731
G1 X161.672 Y86.994 E2.96061
G1 X161.961 Y87.648 E2.98439
G1 X162.175 Y88.331 E3.00819
G1 X162.311 Y89.033 E3.03198
G1 X162.37 Y89.9 E3.06088
G1 X162.372 Y145.095 E4.89667
G1 X162.332 Y145.809 E4.92046
G1 X162.213 Y146.514 E4.94424
G1 X162.015 Y147.202 E4.96805
G1 X161.683 Y147.983 E4.99627
G1 X161.367 Y148.608 E5.01957
G1 X161.01 Y149.227 E5.04333
G1 X160.585 Y149.802 E5.06712
G1 X160.098 Y150.327 E5.09093
G1 X159.557 Y150.794 E5.1147
G1 X158.966 Y151.197 E5.1385
G1 X158.334 Y151.533 E5.1623
G1 X157.331 Y151.897 E5.19779
G1 X156.531 Y152.114 E5.22536
G1 X155.832 Y152.262 E5.24912
G1 X154.855 Y152.337 E5.28172
G1 X79.982 Y152.326 E7.772
G1 X79.268 Y152.286 E7.79579
G1 X78.563 Y152.166 E7.81957
G1 X78.037 Y152.023 E7.8377
G1 X77.401 Y151.82 E7.85991
G1 X76.733 Y151.565 E7.88369
G1 X76.097 Y151.237 E7.90749
G1 X75.502 Y150.839 E7.9313
G1 X74.955 Y150.379 E7.95507
G1 X74.463 Y149.859 E7.97888
G1 X74.032 Y149.289 E8.00265
G1 X73.641 Y148.621 E8.02839
G1 X73.322 Y147.993 E8.05182
G1 X73.034 Y147.339 E8.07559
G1 X72.821 Y146.656 E8.09938
G1 X72.686 Y145.953 E8.12319
G1 X72.628 Y145.095 E8.15179
G1 X72.628 Y89.904 E9.98745
G1 X72.668 Y89.19 E10.01124
G1 X72.787 Y88.485 E10.03502
G1 X72.985 Y87.797 E10.05883
G1 X73.315 Y87.02 E10.08691
G1 X73.63 Y86.396 E10.11016
G1 X73.987 Y85.776 E10.13395
G1 X74.412 Y85.201 E10.15773
G1 X74.898 Y84.676 E10.18153
M204 S5000
M205 X30 Y30
G0 F3600 X75.223 Y84.918
M204 S500
M205 X20 Y20
G1 F1500 X75.753 Y84.472 E10.20457
G1 X76.331 Y84.091 E10.22759
G1 X76.949 Y83.778 E10.25063
G1 X77.774 Y83.489 E10.27971
G1 X78.575 Y83.272 E10.30731
G1 X79.253 Y83.13 E10.33035
G1 X80.145 Y83.063 E10.3601
G1 X155.018 Y83.074 E12.85039
G1 X155.709 Y83.114 E12.87341
G1 X156.391 Y83.234 E12.89644
G1 X156.836 Y83.356 E12.91179
G1 X157.471 Y83.558 E12.93395
G1 X158.118 Y83.806 E12.957
G1 X158.731 Y84.127 E12.98001
G1 X159.304 Y84.516 E13.00305
G1 X159.829 Y84.968 E13.02609
G1 X160.297 Y85.478 E13.04911
G1 X160.704 Y86.039 E13.07216
G1 X160.998 Y86.552 E13.09183
G1 X161.316 Y87.176 E13.11512
G1 X161.594 Y87.81 E13.13815
G1 X161.798 Y88.472 E13.16119
G1 X161.923 Y89.153 E13.18422
G1 X161.97 Y89.9 E13.20911
G1 X161.972 Y145.095 E15.0449
G1 X161.932 Y145.786 E15.06792
G1 X161.813 Y146.468 E15.09095
G1 X161.616 Y147.132 E15.11399
G1 X161.327 Y147.802 E15.13826
G1 X161.011 Y148.427 E15.16155
G1 X160.663 Y149.026 E15.18459
G1 X160.249 Y149.581 E15.20762
G1 X159.773 Y150.085 E15.23068
G1 X159.243 Y150.53 E15.25369
G1 X158.665 Y150.911 E15.27672
G1 X158.046 Y151.223 E15.29977
G1 X157.227 Y151.511 E15.32865
G1 X156.427 Y151.728 E15.35622
G1 X155.749 Y151.87 E15.37926
G1 X154.855 Y151.937 E15.40908
G1 X79.982 Y151.926 E17.89936
G1 X79.291 Y151.886 E17.92238
G1 X78.609 Y151.766 E17.94542
G1 X78.159 Y151.642 E17.96094
G1 X77.523 Y151.439 E17.98315
G1 X76.876 Y151.191 E18.00619
G1 X76.263 Y150.869 E18.02922
G1 X75.69 Y150.48 E18.05226
G1 X75.166 Y150.027 E18.0753
G1 X74.698 Y149.516 E18.09834
G1 X74.292 Y148.955 E18.12137
G1 X73.998 Y148.44 E18.1411
G1 X73.679 Y147.812 E18.16453
G1 X73.401 Y147.178 E18.18755
G1 X73.199 Y146.516 E18.21057
G1 X73.074 Y145.834 E18.23363
G1 X73.028 Y145.095 E18.25826
G1 X73.028 Y89.904 E20.09392
G1 X73.068 Y89.213 E20.11694
G1 X73.187 Y88.53 E20.14
G1 X73.385 Y87.867 E20.16301
G1 X73.672 Y87.2 E20.18716
G1 X73.987 Y86.576 E20.21041
G1 X74.334 Y85.977 E20.23344
G1 X74.748 Y85.422 E20.25647
G1 X75.223 Y84.918 E20.2795
M204 S5000
M205 X30 Y30
G0 F3600 X75.548 Y85.162
M204 S500
M205 X20 Y20
G1 F1500 X76.066 Y84.739 E20.30175
G1 X76.631 Y84.381 E20.32399
G1 X77.234 Y84.092 E20.34623
G1 X77.879 Y83.875 E20.36887
G1 X78.68 Y83.658 E20.39647
G1 X79.335 Y83.522 E20.41872
G1 X80.145 Y83.463 E20.44573
G1 X155.018 Y83.474 E22.93602
G1 X155.686 Y83.514 E22.95827
G1 X156.344 Y83.633 E22.98051
G1 X156.715 Y83.738 E22.99334
G1 X157.35 Y83.94 E23.0155
G1 X157.974 Y84.18 E23.03774
G1 X158.565 Y84.493 E23.05998
G1 X159.115 Y84.875 E23.08225
G1 X159.615 Y85.319 E23.10449
G1 X160.058 Y85.82 E23.12674
G1 X160.439 Y86.37 E23.14899
G1 X160.641 Y86.733 E23.16281
G1 X160.959 Y87.357 E23.1861
G1 X161.227 Y87.97 E23.20835
G1 X161.42 Y88.611 E23.23062
G1 X161.534 Y89.27 E23.25286
G1 X161.57 Y89.9 E23.27385
G1 X161.572 Y145.095 E25.10964
G1 X161.532 Y145.763 E25.1319
G1 X161.413 Y146.421 E25.15414
G1 X161.216 Y147.06 E25.17638
G1 X160.97 Y147.622 E25.19679
G1 X160.654 Y148.247 E25.22008
G1 X160.317 Y148.825 E25.24233
G1 X159.913 Y149.358 E25.26458
G1 X159.449 Y149.84 E25.28683
G1 X158.93 Y150.263 E25.3091
G1 X158.365 Y150.621 E25.33135
G1 X157.761 Y150.909 E25.3536
G1 X157.122 Y151.125 E25.37604
G1 X156.322 Y151.342 E25.40361
G1 X155.667 Y151.478 E25.42586
G1 X154.855 Y151.537 E25.45294
G1 X79.982 Y151.526 E27.94322
G1 X79.314 Y151.486 E27.96548
G1 X78.656 Y151.367 E27.98772
G1 X78.28 Y151.261 E28.00071
G1 X77.644 Y151.058 E28.02292
G1 X77.02 Y150.817 E28.04517
G1 X76.429 Y150.503 E28.06742
G1 X75.88 Y150.121 E28.08967
G1 X75.38 Y149.676 E28.11193
G1 X74.937 Y149.175 E28.13418
G1 X74.557 Y148.624 E28.15644
G1 X74.354 Y148.259 E28.17033
G1 X74.035 Y147.631 E28.19376
G1 X73.768 Y147.018 E28.216
G1 X73.577 Y146.377 E28.23824
G1 X73.463 Y145.717 E28.26052
G1 X73.428 Y145.095 E28.28124
G1 X73.428 Y89.904 E30.1169
G1 X73.468 Y89.236 E30.13916
G1 X73.587 Y88.578 E30.1614
G1 X73.784 Y87.938 E30.18367
G1 X74.029 Y87.38 E30.20394
G1 X74.344 Y86.756 E30.22719
G1 X74.68 Y86.178 E30.24942
G1 X75.084 Y85.644 E30.27169
G1 X75.548 Y85.162 E30.29395
M204 S5000
M205 X30 Y30
G0 F3600 X75.871 Y85.409
M204 S500
M205 X20 Y20
G1 F1500 X76.376 Y85.009 E30.31537
G1 X76.928 Y84.675 E30.33683
G1 X77.516 Y84.411 E30.35827
G1 X77.983 Y84.261 E30.37458
G1 X78.784 Y84.044 E30.40219
G1 X79.416 Y83.914 E30.42365
G1 X80.145 Y83.863 E30.44795
G1 X155.018 Y83.874 E32.93824
G1 X155.661 Y83.914 E32.95967
G1 X156.593 Y84.119 E32.99141
G1 X157.228 Y84.321 E33.01357
G1 X157.829 Y84.554 E33.03501
G1 X158.397 Y84.86 E33.05647
G1 X158.922 Y85.233 E33.07789
G1 X159.397 Y85.669 E33.09933
G1 X159.815 Y86.16 E33.12078
G1 X160.285 Y86.915 E33.15036
G1 X160.603 Y87.539 E33.17365
G1 X160.86 Y88.13 E33.19509
G1 X161.041 Y88.749 E33.21654
G1 X161.144 Y89.385 E33.23797
G1 X161.17 Y89.9 E33.25512
G1 X161.172 Y145.095 E35.09091
G1 X161.132 Y145.738 E35.11234
G1 X161.013 Y146.372 E35.13379
G1 X160.816 Y146.986 E35.15524
G1 X160.613 Y147.441 E35.17181
G1 X160.297 Y148.066 E35.1951
G1 X159.971 Y148.622 E35.21654
G1 X159.578 Y149.134 E35.23801
G1 X159.126 Y149.593 E35.25944
G1 X158.62 Y149.993 E35.28089
G1 X158.068 Y150.327 E35.30235
G1 X157.48 Y150.59 E35.32377
G1 X157.017 Y150.739 E35.33995
G1 X156.217 Y150.956 E35.36752
G1 X155.586 Y151.086 E35.38895
G1 X154.855 Y151.137 E35.41332
G1 X79.982 Y151.126 E37.9036
G1 X79.339 Y151.086 E37.92503
G1 X78.402 Y150.88 E37.95694
G1 X77.766 Y150.677 E37.97915
G1 X77.165 Y150.443 E38.0006
G1 X76.598 Y150.137 E38.02203
G1 X76.073 Y149.763 E38.04347
G1 X75.598 Y149.327 E38.06491
G1 X75.181 Y148.835 E38.08636
G1 X74.711 Y148.078 E38.116
G1 X74.392 Y147.45 E38.13943
G1 X74.136 Y146.858 E38.16088
G1 X73.955 Y146.239 E38.18233
G1 X73.853 Y145.603 E38.20375
G1 X73.828 Y145.095 E38.22067
G1 X73.828 Y89.904 E40.05633
G1 X73.868 Y89.261 E40.07776
G1 X73.987 Y88.627 E40.09921
G1 X74.184 Y88.013 E40.12066
G1 X74.386 Y87.561 E40.13712
G1 X74.701 Y86.937 E40.16037
G1 X75.027 Y86.38 E40.18184
G1 X75.419 Y85.868 E40.20329
G1 X75.871 Y85.409 E40.22471
M204 S5000
M205 X30 Y30
G1 F2400 E35.22471
;MESH:637762bb-4b84-4ed0-881f-4ff5df7fd378.stl
G0 F3600 X79.708 Y88.454
G0 X80.098 Y89.678
G0 X102.73 Y105.08
G0 X102.8 Y105.15
M204 S500
M205 X20 Y20
;TYPE:WALL-INNER
G1 F2400 E40.22471
G1 F1500 X102.8 Y120.35 E40.73027
G1 X132 Y120.35 E41.70146
G1 X132 Y105.15 E42.20702
G1 X102.8 Y105.15 E43.17821
M204 S5000
M205 X30 Y30
G0 F3600 X102.73 Y105.08
G0 X95.468 Y128.588
G0 X95.52 Y128.673
M204 S500
M205 X20 Y20
G1 F1500 X94.926 Y129.156 E43.20368
G1 X94.404 Y129.716 E43.22914
G1 X93.964 Y130.34 E43.25453
G1 X93.612 Y131.018 E43.27994
G1 X93.356 Y131.739 E43.30539
G1 X93.201 Y132.488 E43.33083
G1 X93.149 Y133.25 E43.35623
G1 X93.201 Y134.012 E43.38163
G1 X93.356 Y134.761 E43.40707
G1 X93.612 Y135.482 E43.43252
G1 X93.964 Y136.16 E43.45793
G1 X94.404 Y136.784 E43.48333
G1 X94.926 Y137.344 E43.50879
G1 X95.52 Y137.827 E43.53425
G1 X96.174 Y138.223 E43.55968
G1 X96.875 Y138.528 E43.58511
G1 X97.61 Y138.734 E43.6105
G1 X98.368 Y138.838 E43.63594
G1 X99.132 Y138.838 E43.66135
G1 X99.89 Y138.734 E43.6868
G1 X100.625 Y138.528 E43.71219
G1 X101.326 Y138.223 E43.73762
G1 X101.98 Y137.827 E43.76304
G1 X102.574 Y137.344 E43.78851
G1 X103.096 Y136.784 E43.81397
G1 X103.536 Y136.16 E43.83937
G1 X103.888 Y135.482 E43.86477
G1 X104.144 Y134.761 E43.89022
G1 X104.299 Y134.012 E43.91566
G1 X104.351 Y133.25 E43.94106
G1 X104.299 Y132.488 E43.96647
G1 X104.144 Y131.739 E43.99191
G1 X103.888 Y131.018 E44.01735
G1 X103.536 Y130.34 E44.04276
G1 X103.096 Y129.716 E44.06816
G1 X102.574 Y129.156 E44.09362
G1 X101.98 Y128.673 E44.11908
G1 X101.326 Y128.277 E44.14451
G1 X100.625 Y127.972 E44.16994
G1 X99.89 Y127.766 E44.19533
G1 X99.132 Y127.662 E44.22078
G1 X98.368 Y127.662 E44.24619
G1 X97.61 Y127.766 E44.27163
G1 X96.875 Y127.972 E44.29702
G1 X96.174 Y128.277 E44.32245
G1 X95.52 Y128.673 E44.34788
M204 S5000
M205 X30 Y30
G0 F3600 X95.468 Y128.588
G0 X94.372 Y129.691
G0 X93.934 Y130.315
G0 X93.574 Y131.008
G0 X93.319 Y131.724
G0 X93.193 Y132.336
G0 X92.499 Y145.24
G0 X92.499 Y145.34
M204 S500
M205 X20 Y20
G1 F1500 X87.197 Y145.36 E44.52422
G1 X80.094 Y145.341 E44.76047
G1 X79.75 Y145.232 E44.77247
G1 X79.658 Y145.048 E44.77932
G1 X79.641 Y137.085 E45.04417
G1 X79.659 Y131.252 E45.23817
G1 X79.66 Y103.749 E46.15293
G1 X79.64 Y97.919 E46.34684
G1 X79.659 Y89.951 E46.61185
G1 X79.746 Y89.769 E46.61856
G1 X80.093 Y89.659 E46.63067
G1 X87.197 Y89.641 E46.86695
G1 X92.498 Y89.659 E47.04326
G1 X142.501 Y89.66 E48.70637
G1 X147.803 Y89.64 E48.88272
G1 X154.906 Y89.659 E49.11896
G1 X155.25 Y89.768 E49.13097
G1 X155.342 Y89.952 E49.13781
G1 X155.359 Y97.915 E49.40266
G1 X155.341 Y103.748 E49.59667
G1 X155.34 Y131.251 E50.51142
G1 X155.36 Y137.081 E50.70533
G1 X155.341 Y145.049 E50.97035
G1 X155.254 Y145.231 E50.97705
G1 X154.907 Y145.341 E50.98916
G1 X147.803 Y145.359 E51.22544
G1 X142.502 Y145.341 E51.40176
G1 X92.499 Y145.34 E53.06486
M204 S5000
M205 X30 Y30
G0 F3600 X92.499 Y145.24
G0 X133.568 Y128.588
G0 X133.62 Y128.673
M204 S500
M205 X20 Y20
G1 F1500 X133.026 Y129.156 E53.09033
G1 X132.504 Y129.716 E53.11579
G1 X132.064 Y130.34 E53.14118
G1 X131.712 Y131.018 E53.16659
G1 X131.456 Y131.739 E53.19204
G1 X131.301 Y132.488 E53.21748
G1 X131.249 Y133.25 E53.24288
G1 X131.301 Y134.012 E53.26829
G1 X131.456 Y134.761 E53.29372
G1 X131.712 Y135.482 E53.31917
G1 X132.064 Y136.16 E53.34458
G1 X132.504 Y136.784 E53.36998
G1 X133.026 Y137.344 E53.39544
G1 X133.62 Y137.827 E53.4209
G1 X134.274 Y138.223 E53.44633
G1 X134.975 Y138.528 E53.47176
G1 X135.71 Y138.734 E53.49715
G1 X136.468 Y138.838 E53.52259
G1 X137.232 Y138.838 E53.548
G1 X137.99 Y138.734 E53.57345
G1 X138.725 Y138.528 E53.59884
G1 X139.426 Y138.223 E53.62427
G1 X140.08 Y137.827 E53.6497
G1 X140.674 Y137.344 E53.67516
G1 X141.196 Y136.784 E53.70062
G1 X141.636 Y136.16 E53.72602
G1 X141.988 Y135.482 E53.75142
G1 X142.244 Y134.761 E53.77687
G1 X142.399 Y134.012 E53.80231
G1 X142.451 Y133.25 E53.82771
G1 X142.399 Y132.488 E53.85312
G1 X142.244 Y131.739 E53.87856
G1 X141.988 Y131.018 E53.904
G1 X141.636 Y130.34 E53.92941
G1 X141.196 Y129.716 E53.95481
G1 X140.674 Y129.156 E53.98027
G1 X140.08 Y128.673 E54.00573
G1 X139.426 Y128.277 E54.03116
G1 X138.725 Y127.972 E54.05659
G1 X137.99 Y127.766 E54.08198
G1 X137.232 Y127.662 E54.10743
G1 X136.468 Y127.662 E54.13284
G1 X135.71 Y127.766 E54.15828
G1 X134.975 Y127.972 E54.18367
G1 X134.274 Y128.277 E54.2091
G1 X133.62 Y128.673 E54.23453
M204 S5000
M205 X30 Y30
G0 F3600 X133.851 Y129.001
M204 S500
M205 X20 Y20
;TYPE:WALL-OUTER
G1 F1500 X133.3 Y129.449 E54.25815
G1 X132.815 Y129.969 E54.2818
G1 X132.407 Y130.548 E54.30536
G1 X132.08 Y131.178 E54.32896
G1 X131.842 Y131.847 E54.35258
G1 X131.698 Y132.542 E54.37619
G1 X131.65 Y133.25 E54.39979
G1 X131.698 Y133.958 E54.42339
G1 X131.842 Y134.653 E54.447
G1 X132.08 Y135.322 E54.47062
G1 X132.407 Y135.952 E54.49423
G1 X132.815 Y136.531 E54.51778
G1 X133.3 Y137.051 E54.54143
G1 X133.851 Y137.499 E54.56505
G1 X134.458 Y137.867 E54.58866
G1 X135.109 Y138.15 E54.61227
G1 X135.792 Y138.341 E54.63586
G1 X136.495 Y138.438 E54.65946
G1 X137.205 Y138.438 E54.68308
G1 X137.908 Y138.341 E54.70668
G1 X138.591 Y138.15 E54.73027
G1 X139.242 Y137.867 E54.75388
G1 X139.849 Y137.499 E54.77749
G1 X140.4 Y137.051 E54.80111
G1 X140.885 Y136.531 E54.82476
G1 X141.293 Y135.952 E54.84832
G1 X141.62 Y135.322 E54.87193
G1 X141.858 Y134.653 E54.89554
G1 X142.002 Y133.958 E54.91915
G1 X142.05 Y133.25 E54.94275
G1 X142.002 Y132.542 E54.96635
G1 X141.858 Y131.847 E54.98996
G1 X141.62 Y131.178 E55.01358
G1 X141.293 Y130.548 E55.03719
G1 X140.885 Y129.969 E55.06075
G1 X140.4 Y129.449 E55.0844
G1 X139.849 Y129.001 E55.10802
G1 X139.242 Y128.633 E55.13162
G1 X138.591 Y128.35 E55.15523
G1 X137.908 Y128.159 E55.17882
G1 X137.205 Y128.062 E55.20243
G1 X136.495 Y128.062 E55.22604
G1 X135.792 Y128.159 E55.24964
G1 X135.109 Y128.35 E55.27323
G1 X134.458 Y128.633 E55.29684
G1 X133.851 Y129.001 E55.32045
M204 S5000
M205 X30 Y30
G0 F3600 X133.696 Y129.127
G0 X133.381 Y128.739
G0 X135.784 Y128.12
G0 X136.493 Y128.023
G0 X137.207 Y128.023
G0 X137.916 Y128.12
G0 X138.604 Y128.313
G0 X139.26 Y128.598
G0 X139.872 Y128.969
G0 X140.186 Y129.223
G0 X155.656 Y145.086
G0 X155.741 Y145.041
M204 S500
M205 X20 Y20
G1 F1500 X155.763 Y145.093 E55.32233
G1 X155.595 Y145.446 E55.33533
G1 X155.534 Y145.562 E55.33969
G1 X154.968 Y145.741 E55.35944
G1 X147.803 Y145.759 E55.59775
G1 X142.501 Y145.741 E55.77409
G1 X92.5 Y145.74 E57.43713
G1 X87.198 Y145.76 E57.61348
G1 X80.032 Y145.741 E57.85182
G1 X79.469 Y145.562 E57.87147
G1 X79.235 Y145.096 E57.88881
G1 X79.258 Y145.039 E57.89086
G1 X79.241 Y137.084 E58.15544
G1 X79.259 Y131.251 E58.34945
G1 X79.26 Y103.75 E59.26414
G1 X79.24 Y97.918 E59.45811
