;FLAVOR:Marlin
;TIME:6946
;Filament used: 5.02905m
;Layer height: 0.2
;Generated with Cura_SteamEngine 3.6.0
M140 S60
M105
M190 S60
M104 S200
M105
M109 S200
M82 ;absolute extrusion mode
; Ender 3 Custom Start G-code
G28 ; Home all axes
G92 E0 ; Reset Extruder
G1 Z2.0 F3000 ; Move Z Axis up little to prevent scratching of Heat Bed
G1 X0.1 Y20 Z0.3 F5000.0 ; Move to start position
G1 X0.1 Y200.0 Z0.3 F1500.0 E15 ; Draw the first line
G1 X0.4 Y200.0 Z0.3 F5000.0 ; Move to side a little
G1 X0.4 Y20 Z0.3 F1500.0 E30 ; Draw the second line
G92 E0 ; Reset Extruder
G1 Z2.0 F3000 ; Move Z Axis up little to prevent scratching of Heat Bed
; End of custom start GCode
G92 E0
G1 F2400 E-5
;LAYER_COUNT:156
;LAYER:0
M107
M204 S5000
M205 X30 Y30
G0 F3600 X82.041 Y88.053 Z0.2
M204 S500
M205 X20 Y20
;TYPE:SKIRT
G1 F2400 E0
G1 F1500 X82.58 Y87.583 E0.02379
G1 X83.168 Y87.176 E0.04757
G1 X83.798 Y86.837 E0.07137
G1 X84.462 Y86.571 E0.09516
G1 X85.151 Y86.38 E0.11894
G1 X85.858 Y86.267 E0.14275
G1 X86.51 Y86.234 E0.16446
G1 X133.495 Y86.235 E1.72719
G1 X134.209 Y86.275 E1.75098
G1 X134.915 Y86.394 E1.77479
G1 X135.602 Y86.592 E1.79857
G1 X136.263 Y86.865 E1.82235
G1 X136.89 Y87.21 E1.84616
G1 X137.474 Y87.622 E1.86993
G1 X138.008 Y88.098 E1.89372
G1 X138.355 Y88.471 E1.91067
G1 X141.944 Y92.66 E2.09414
G1 X145.643 Y96.515 E2.27183
G1 X147.464 Y98.259 E2.35569
G1 X152.682 Y102.792 E2.58559
G1 X153.195 Y103.291 E2.60939
G1 X153.649 Y103.844 E2.63319
G1 X154.039 Y104.443 E2.65696
G1 X154.359 Y105.083 E2.68076
G1 X154.606 Y105.754 E2.70454
G1 X154.732 Y106.233 E2.72102
G1 X156.105 Y112.396 E2.93102
G1 X157.838 Y118.384 E3.13836
G1 X157.998 Y119.081 E3.16214
G1 X158.079 Y119.791 E3.18591
G1 X158.09 Y120.163 E3.19829
G1 X158.09 Y141.082 E3.89406
G1 X158.05 Y141.796 E3.91784
G1 X157.931 Y142.501 E3.94162
G1 X157.733 Y143.189 E3.96544
G1 X157.46 Y143.85 E3.98922
G1 X157.116 Y144.477 E4.01301
G1 X156.703 Y145.061 E4.0368
G1 X156.274 Y145.548 E4.05838
G1 X156.048 Y145.78 E4.06916
G1 X155.521 Y146.263 E4.09293
G1 X154.944 Y146.685 E4.11671
G1 X154.036 Y147.174 E4.15101
G1 X151.088 Y148.468 E4.25809
G1 X150.418 Y148.719 E4.28189
G1 X149.725 Y148.893 E4.30565
G1 X149.016 Y148.988 E4.32945
G1 X148.517 Y149.008 E4.34606
G1 X86.51 Y149.015 E6.40842
G1 X85.796 Y148.975 E6.4322
G1 X85.09 Y148.856 E6.45601
G1 X84.403 Y148.659 E6.47978
G1 X83.881 Y148.451 E6.49847
G1 X80.834 Y147.079 E6.60962
G1 X80.2 Y146.749 E6.63339
G1 X79.606 Y146.351 E6.65717
G1 X78.864 Y145.695 E6.69011
G1 X78.712 Y145.538 E6.69738
G1 X78.244 Y144.997 E6.72117
G1 X77.839 Y144.407 E6.74497
G1 X77.503 Y143.776 E6.76875
G1 X77.239 Y143.111 E6.79255
G1 X77.051 Y142.421 E6.81634
G1 X76.941 Y141.714 E6.84013
G1 X76.91 Y141.086 E6.86105
G1 X76.91 Y120.169 E7.55675
G1 X76.95 Y119.455 E7.58053
G1 X77.079 Y118.707 E7.60578
G1 X78.002 Y114.772 E7.74021
G1 X78.522 Y112.193 E7.82771
G1 X78.959 Y109.63 E7.91419
G1 X79.636 Y104.346 E8.09137
G1 X80.013 Y99.05 E8.26796
G1 X80.111 Y92.538 E8.48458
G1 X80.161 Y91.824 E8.50838
G1 X80.291 Y91.121 E8.53216
G1 X80.499 Y90.436 E8.55597
G1 X80.782 Y89.779 E8.57977
G1 X81.136 Y89.158 E8.60354
G1 X81.558 Y88.58 E8.62734
G1 X82.041 Y88.053 E8.65112
M204 S5000
M205 X30 Y30
G0 F3600 X82.432 Y88.233
M204 S500
M205 X20 Y20
G1 F1500 X82.966 Y87.792 E8.67415
G1 X83.548 Y87.416 E8.6972
G1 X84.169 Y87.11 E8.72023
G1 X84.821 Y86.877 E8.74326
G1 X85.496 Y86.72 E8.76631
G1 X86.51 Y86.634 E8.80015
G1 X133.495 Y86.635 E10.36288
G1 X134.187 Y86.675 E10.38593
G1 X134.869 Y86.794 E10.40896
G1 X135.533 Y86.992 E10.43201
G1 X136.169 Y87.264 E10.45501
G1 X136.77 Y87.608 E10.47804
G1 X137.328 Y88.019 E10.50109
G1 X138.052 Y88.731 E10.53487
G1 X141.66 Y92.942 E10.71931
G1 X145.348 Y96.787 E10.89651
G1 X147.197 Y98.557 E10.98164
G1 X152.42 Y103.094 E11.21175
G1 X152.916 Y103.578 E11.2348
G1 X153.352 Y104.115 E11.2578
G1 X153.724 Y104.7 E11.28086
G1 X154.026 Y105.323 E11.30389
G1 X154.254 Y105.977 E11.32693
G1 X154.341 Y106.32 E11.3387
G1 X155.717 Y112.497 E11.54918
G1 X157.453 Y118.495 E11.75686
G1 X157.607 Y119.17 E11.77989
G1 X157.69 Y120.163 E11.81303
G1 X157.69 Y141.082 E12.5088
G1 X157.65 Y141.773 E12.53182
G1 X157.531 Y142.456 E12.55488
G1 X157.333 Y143.119 E12.57789
G1 X157.061 Y143.756 E12.60093
G1 X156.717 Y144.357 E12.62396
G1 X156.306 Y144.915 E12.64701
G1 X155.988 Y145.269 E12.66284
G1 X155.762 Y145.501 E12.67361
G1 X155.251 Y145.968 E12.69664
G1 X154.689 Y146.373 E12.71968
G1 X153.876 Y146.808 E12.75035
G1 X150.928 Y148.102 E12.85743
G1 X150.278 Y148.343 E12.88048
G1 X149.606 Y148.508 E12.9035
G1 X148.919 Y148.594 E12.92653
G1 X148.517 Y148.608 E12.9399
G1 X86.51 Y148.615 E15.00227
G1 X85.818 Y148.575 E15.02532
G1 X85.136 Y148.456 E15.04835
G1 X84.472 Y148.259 E15.07138
G1 X84.046 Y148.086 E15.08668
G1 X80.999 Y146.714 E15.19782
G1 X80.385 Y146.394 E15.22085
G1 X79.812 Y146.005 E15.24388
G1 X79.151 Y145.416 E15.27333
G1 X78.999 Y145.259 E15.2806
G1 X78.547 Y144.735 E15.30361
G1 X78.158 Y144.162 E15.32665
G1 X77.838 Y143.548 E15.34968
G1 X77.591 Y142.901 E15.37271
G1 X77.42 Y142.23 E15.39574
G1 X77.327 Y141.543 E15.4188
G1 X77.31 Y141.086 E15.43401
G1 X77.31 Y120.169 E16.12971
G1 X77.35 Y119.478 E16.15273
G1 X77.469 Y118.798 E16.1757
G1 X78.389 Y114.876 E16.30968
G1 X78.92 Y112.241 E16.39908
G1 X79.354 Y109.701 E16.48479
G1 X80.035 Y104.387 E16.66298
G1 X80.413 Y99.068 E16.84034
G1 X80.511 Y92.544 E17.05735
G1 X80.561 Y91.853 E17.08039
G1 X80.691 Y91.173 E17.10342
G1 X80.898 Y90.512 E17.12646
G1 X81.18 Y89.879 E17.14951
G1 X81.533 Y89.283 E17.17254
G1 X81.952 Y88.732 E17.19557
G1 X82.432 Y88.233 E17.2186
M204 S5000
M205 X30 Y30
G0 F3600 X82.822 Y88.42
M204 S500
M205 X20 Y20
G1 F1500 X83.351 Y88.01 E17.24086
G1 X83.925 Y87.666 E17.26311
G1 X84.536 Y87.394 E17.28536
G1 X85.175 Y87.196 E17.30761
G1 X85.833 Y87.075 E17.32986
G1 X86.51 Y87.034 E17.35242
G1 X133.495 Y87.035 E18.91515
G1 X134.163 Y87.075 E18.9374
G1 X134.821 Y87.194 E18.95964
G1 X135.461 Y87.391 E18.98192
G1 X136.072 Y87.663 E19.00416
G1 X136.646 Y88.006 E19.0264
G1 X137.176 Y88.415 E19.04867
G1 X137.748 Y88.992 E19.07569
G1 X141.351 Y93.197 E19.25987
G1 X145.066 Y97.069 E19.43834
G1 X146.941 Y98.865 E19.5247
G1 X152.157 Y103.396 E19.7545
G1 X152.635 Y103.864 E19.77675
G1 X153.054 Y104.386 E19.79901
G1 X153.408 Y104.954 E19.82127
G1 X153.691 Y105.56 E19.84352
G1 X153.951 Y106.407 E19.87298
G1 X155.33 Y112.598 E20.08394
G1 X157.069 Y118.606 E20.29197
G1 X157.216 Y119.259 E20.31424
G1 X157.29 Y120.163 E20.3444
G1 X157.29 Y141.082 E21.04017
G1 X157.25 Y141.75 E21.06243
G1 X157.131 Y142.408 E21.08467
G1 X156.934 Y143.048 E21.10694
G1 X156.662 Y143.659 E21.12919
G1 X156.319 Y144.233 E21.15143
G1 X155.701 Y144.99 E21.18393
G1 X155.475 Y145.222 E21.1947
G1 X154.981 Y145.672 E21.21693
G1 X154.436 Y146.06 E21.23918
G1 X153.715 Y146.442 E21.26632
G1 X150.767 Y147.736 E21.3734
G1 X150.139 Y147.968 E21.39567
G1 X149.488 Y148.123 E21.41792
G1 X148.517 Y148.208 E21.45034
G1 X86.51 Y148.215 E23.5127
G1 X85.842 Y148.175 E23.53496
G1 X85.183 Y148.056 E23.55723
G1 X84.544 Y147.859 E23.57947
G1 X84.21 Y147.721 E23.59149
G1 X81.163 Y146.349 E23.70264
G1 X80.57 Y146.039 E23.72489
G1 X80.019 Y145.66 E23.74714
G1 X79.439 Y145.138 E23.77309
G1 X79.287 Y144.981 E23.78036
G1 X78.851 Y144.474 E23.8026
G1 X78.479 Y143.918 E23.82485
G1 X78.175 Y143.321 E23.84713
G1 X77.946 Y142.693 E23.86936
G1 X77.792 Y142.042 E23.89161
G1 X77.71 Y141.086 E23.92353
G1 X77.71 Y120.169 E24.61923
G1 X77.75 Y119.501 E24.64149
G1 X77.858 Y118.89 E24.66212
G1 X78.781 Y114.956 E24.79652
G1 X79.312 Y112.321 E24.88592
G1 X79.747 Y109.77 E24.972
G1 X80.434 Y104.414 E25.1516
G1 X80.812 Y99.084 E25.32932
G1 X80.911 Y92.55 E25.54666
G1 X80.961 Y91.882 E25.56894
G1 X81.09 Y91.226 E25.59118
G1 X81.296 Y90.59 E25.61342
G1 X81.577 Y89.983 E25.63566
G1 X81.929 Y89.413 E25.65795
G1 X82.346 Y88.89 E25.68019
G1 X82.822 Y88.42 E25.70244
M204 S5000
M205 X30 Y30
G0 F3600 X82.739 Y89.054
M204 S500
M205 X20 Y20
G1 F1500 X83.211 Y88.615 E25.72388
G1 X83.733 Y88.237 E25.74532
G1 X84.299 Y87.928 E25.76677
G1 X84.898 Y87.69 E25.7882
G1 X85.522 Y87.529 E25.80964
G1 X86.162 Y87.446 E25.8311
G1 X86.51 Y87.434 E25.84268
G1 X133.495 Y87.435 E27.40541
G1 X134.139 Y87.475 E27.42687
G1 X134.772 Y87.594 E27.44829
G1 X135.386 Y87.791 E27.46974
G1 X135.971 Y88.062 E27.49118
G1 X136.518 Y88.404 E27.51264
G1 X137.018 Y88.81 E27.53406
G1 X137.444 Y89.252 E27.55448
G1 X141.058 Y93.47 E27.73922
G1 X144.772 Y97.341 E27.91765
G1 X146.674 Y99.163 E28.00525
G1 X151.895 Y103.698 E28.23527
G1 X152.355 Y104.15 E28.25672
G1 X152.755 Y104.656 E28.27817
G1 X153.089 Y105.207 E28.2996
G1 X153.353 Y105.795 E28.32104
G1 X153.561 Y106.494 E28.34529
G1 X154.943 Y112.699 E28.55673
G1 X156.685 Y118.717 E28.76511
G1 X156.825 Y119.346 E28.78654
G1 X156.89 Y120.163 E28.8138
G1 X156.89 Y141.082 E29.50957
G1 X156.85 Y141.725 E29.53099
G1 X156.731 Y142.359 E29.55245
G1 X156.534 Y142.973 E29.5739
G1 X156.263 Y143.558 E29.59534
G1 X155.921 Y144.105 E29.6168
G1 X155.415 Y144.71 E29.64303
G1 X155.189 Y144.942 E29.6538
G1 X154.711 Y145.375 E29.67525
G1 X154.184 Y145.746 E29.69669
G1 X153.554 Y146.075 E29.72033
G1 X150.606 Y147.369 E29.82741
G1 X150.001 Y147.592 E29.84885
G1 X149.373 Y147.737 E29.87029
G1 X148.517 Y147.808 E29.89886
G1 X86.51 Y147.815 E31.96122
G1 X85.866 Y147.775 E31.98268
G1 X85.233 Y147.656 E32.0041
G1 X84.374 Y147.356 E32.03437
G1 X81.327 Y145.984 E32.14551
G1 X80.757 Y145.684 E32.16693
G1 X80.228 Y145.315 E32.18839
G1 X79.726 Y144.86 E32.21092
G1 X79.574 Y144.703 E32.21819
G1 X79.155 Y144.213 E32.23963
G1 X78.8 Y143.675 E32.26107
G1 X78.515 Y143.097 E32.2825
G1 X78.303 Y142.488 E32.30395
G1 X78.168 Y141.858 E32.32538
G1 X78.11 Y141.086 E32.35113
G1 X78.11 Y120.169 E33.04683
G1 X78.15 Y119.526 E33.06826
G1 X78.248 Y118.981 E33.08668
G1 X79.168 Y115.06 E33.22063
G1 X79.704 Y112.396 E33.31101
G1 X80.145 Y109.818 E33.398
G1 X80.831 Y104.459 E33.5777
G1 X81.212 Y99.1 E33.75639
G1 X81.311 Y92.556 E33.97407
G1 X81.36 Y91.913 E33.99552
G1 X81.489 Y91.281 E34.01697
G1 X81.695 Y90.67 E34.03842
G1 X81.975 Y90.09 E34.05984
G1 X82.325 Y89.548 E34.0813
G1 X82.739 Y89.054 E34.10274
M204 S5000
M205 X30 Y30
G1 F2400 E29.10274
G0 F3600 X133.657 Y91.964
G0 X134.161 Y92.468
G0 X134.161 Y94.782
G0 X133.657 Y95.286
G0 X89.4 Y95.525
M204 S500
M205 X20 Y20
;TYPE:SUPPORT
G1 F2400 E34.10274
G1 F1500 X133.75 Y95.525 E35.57782
G1 X133.75 Y95.759 E35.58561
G1 X133.5 Y96.008 E35.59734
G1 X133.5 Y107.226 E35.97045
G1 X133.899 Y107.625 E35.98922
G1 X145.6 Y107.625 E36.3784
G1 X145.6 Y139.725 E37.44605
G1 X89.4 Y139.725 E39.31527
G1 X89.4 Y95.525 E40.78537
M204 S5000
M205 X30 Y30
G0 F3600 X94.852 Y99.41
M204 S500
M205 X20 Y20
G1 F1500 X94.341 Y100.205 E40.8168
G1 X93.919 Y101.082 E40.84917
G1 X93.6 Y101.954 E40.88005
G1 X93.375 Y102.92 E40.91304
G1 X93.264 Y103.89 E40.94551
G1 X93.264 Y104.874 E40.97824
G1 X93.369 Y105.826 E41.0101
G1 X93.586 Y106.755 E41.04183
G1 X93.913 Y107.672 E41.07421
G1 X94.362 Y108.571 E41.10763
G1 X94.854 Y109.34 E41.138
G1 X95.505 Y110.141 E41.17233
G1 X96.191 Y110.803 E41.20403
G1 X96.947 Y111.391 E41.23589
G1 X97.774 Y111.892 E41.26805
G1 X98.691 Y112.308 E41.30154
G1 X99.564 Y112.592 E41.33207
G1 X100.524 Y112.781 E41.36462
G1 X101.584 Y112.881 E41.40003
G1 X102.422 Y112.857 E41.42791
G1 X103.404 Y112.711 E41.46093
G1 X104.37 Y112.461 E41.49412
G1 X105.295 Y112.11 E41.52703
G1 X106.143 Y111.654 E41.55905
G1 X106.937 Y111.104 E41.59118
G1 X107.692 Y110.458 E41.62422
G1 X108.316 Y109.778 E41.65492
G1 X108.902 Y108.969 E41.68815
G1 X109.377 Y108.129 E41.72024
G1 X109.764 Y107.21 E41.75341
G1 X110.009 Y106.357 E41.78293
G1 X110.186 Y105.398 E41.81536
G1 X110.243 Y104.365 E41.84977
G1 X110.182 Y103.324 E41.88445
G1 X110.017 Y102.418 E41.91508
G1 X109.743 Y101.484 E41.94746
G1 X109.41 Y100.687 E41.97619
G1 X108.904 Y99.778 E42.01079
G1 X108.311 Y98.974 E42.04402
G1 X107.68 Y98.284 E42.07512
G1 X106.945 Y97.65 E42.1074
G1 X106.128 Y97.091 E42.14032
G1 X105.26 Y96.634 E42.17295
G1 X104.422 Y96.308 E42.20286
G1 X103.364 Y96.034 E42.23921
G1 X102.452 Y95.903 E42.26985
G1 X101.56 Y95.876 E42.29953
G1 X100.583 Y95.964 E42.33216
G1 X99.572 Y96.158 E42.3664
G1 X98.66 Y96.452 E42.39827
G1 X97.767 Y96.863 E42.43097
G1 X96.934 Y97.371 E42.46342
G1 X96.217 Y97.93 E42.49366
G1 X95.509 Y98.596 E42.52599
G1 X94.852 Y99.41 E42.56078
M204 S5000
M205 X30 Y30
G0 F3600 X95.236 Y98.679
M204 S500
M205 X20 Y20
G1 F1500 X89.56 Y98.679 E42.74956
M204 S5000
M205 X30 Y30
G0 F3600 X89.56 Y96.012
M204 S500
M205 X20 Y20
G1 F1500 X99.503 Y96.012 E43.08027
M204 S5000
M205 X30 Y30
G0 F3600 X98.679 Y96.277
M204 S500
M205 X20 Y20
G1 F1500 X98.679 Y95.685 E43.09996
M204 S5000
M205 X30 Y30
G0 F3600 X96.012 Y95.685
M204 S500
M205 X20 Y20
G1 F1500 X96.012 Y97.903 E43.17373
M204 S5000
M205 X30 Y30
G0 F3600 X93.345 Y95.685
M204 S500
M205 X20 Y20
G1 F1500 X93.345 Y102.346 E43.39528
M204 S5000
M205 X30 Y30
G0 F3600 X93.652 Y101.346
M204 S500
M205 X20 Y20
G1 F1500 X89.56 Y101.346 E43.53138
M204 S5000
M205 X30 Y30
G0 F3600 X89.56 Y104.013
M204 S500
M205 X20 Y20
G1 F1500 X93.104 Y104.013 E43.64925
M204 S5000
M205 X30 Y30
G0 F3600 X93.345 Y106.426
M204 S500
M205 X20 Y20
G1 F1500 X93.345 Y139.565 E44.75146
M204 S5000
M205 X30 Y30
G0 F3600 X90.678 Y139.565
M204 S500
M205 X20 Y20
G1 F1500 X90.678 Y95.685 E46.21091
M204 S5000
M205 X30 Y30
G0 F3600 X89.56 Y106.68
M204 S500
M205 X20 Y20
G1 F1500 X93.405 Y106.68 E46.3388
M204 S5000
M205 X30 Y30
G0 F3600 X94.67 Y109.347
M204 S500
M205 X20 Y20
G1 F1500 X89.56 Y109.347 E46.50876
M204 S5000
M205 X30 Y30
G0 F3600 X89.56 Y112.014
M204 S500
M205 X20 Y20
G1 F1500 X97.668 Y112.014 E46.77843
M204 S5000
M205 X30 Y30
G0 F3600 X98.679 Y112.473
M204 S500
M205 X20 Y20
G1 F1500 X98.679 Y139.565 E47.67951
M204 S5000
M205 X30 Y30
G0 F3600 X96.012 Y139.565
M204 S500
M205 X20 Y20
G1 F1500 X96.012 Y110.852 E48.63451
M204 S5000
M205 X30 Y30
G0 F3600 X101.346 Y113.019
M204 S500
M205 X20 Y20
G1 F1500 X101.346 Y139.565 E49.51744
M204 S5000
M205 X30 Y30
G0 F3600 X104.013 Y139.565
M204 S500
M205 X20 Y20
G1 F1500 X104.013 Y112.718 E50.41037
M204 S5000
M205 X30 Y30
G0 F3600 X105.813 Y112.014
M204 S500
M205 X20 Y20
G1 F1500 X145.44 Y112.014 E51.72837
M204 S5000
M205 X30 Y30
G0 F3600 X145.44 Y109.347
M204 S500
M205 X20 Y20
G1 F1500 X108.827 Y109.347 E52.94612
M204 S5000
M205 X30 Y30
G0 F3600 X109.347 Y108.506
M204 S500
M205 X20 Y20
G1 F1500 X109.347 Y139.565 E53.97915
M204 S5000
M205 X30 Y30
G0 F3600 X106.68 Y139.565
M204 S500
M205 X20 Y20
G1 F1500 X106.68 Y111.476 E54.91339
M204 S5000
M205 X30 Y30
G0 F3600 X110.084 Y106.68
M204 S500
M205 X20 Y20
G1 F1500 X133.34 Y106.68 E55.68689
M204 S5000
M205 X30 Y30
G0 F3600 X133.35 Y107.303
M204 S500
M205 X20 Y20
G1 F1500 X133.35 Y139.565 E56.75993
M204 S5000
M205 X30 Y30
G0 F3600 X130.683 Y139.565
M204 S500
M205 X20 Y20
G1 F1500 X130.683 Y95.685 E58.21938
M204 S5000
M205 X30 Y30
G0 F3600 X128.016 Y95.685
M204 S500
M205 X20 Y20
G1 F1500 X128.016 Y139.565 E59.67884
M204 S5000
M205 X30 Y30
G0 F3600 X125.349 Y139.565
M204 S500
M205 X20 Y20
G1 F1500 X125.349 Y95.685 E61.13829
M204 S5000
M205 X30 Y30
G0 F3600 X122.682 Y95.685
M204 S500
M205 X20 Y20
G1 F1500 X122.682 Y139.565 E62.59775
M204 S5000
M205 X30 Y30
G0 F3600 X120.015 Y139.565
M204 S500
M205 X20 Y20
G1 F1500 X120.015 Y95.685 E64.0572
M204 S5000
M205 X30 Y30
G0 F3600 X117.348 Y95.685
M204 S500
M205 X20 Y20
G1 F1500 X117.348 Y139.565 E65.51666
M204 S5000
M205 X30 Y30
G0 F3600 X114.681 Y139.565
M204 S500
M205 X20 Y20
